src/pos-icons/radio-handheld.svg

<svg height="24" viewBox="0 0 24 24" width="24" xmlns="http://www.w3.org/2000/svg"><path d="m9 2a1 1 0 0 0 -1 1v17c0 1.11.89 2 2 2h5c1.11 0 2-.89 2-2v-11c0-1.11-.89-2-2-2h-5v-4a1 1 0 0 0 -1-1m1 7h5v4h-5z"/></svg>

<?xml version="1.0" encoding="UTF-8"?><!DOCTYPE svg PUBLIC "-//W3C//DTD SVG 1.1//EN" "http://www.w3.org/Graphics/SVG/1.1/DTD/svg11.dtd"><svg xmlns="http://www.w3.org/2000/svg" xmlns:xlink="http://www.w3.org/1999/xlink" version="1.1" id="mdi-radio-handheld" width="24" height="24" viewBox="0 0 24 24"><path d="M9,2A1,1 0 0,0 8,3C8,8.67 8,14.33 8,20C8,21.11 8.89,22 10,22H15C16.11,22 17,21.11 17,20V9C17,7.89 16.11,7 15,7H10V3A1,1 0 0,0 9,2M10,9H15V13H10V9Z" /></svg>
